src/lib/packages/icons/src/assets/line/link.svg

<svg width="24" height="24" viewBox="0 0 24 24" fill="none" xmlns="http://www.w3.org/2000/svg">
<path d="M17.5649 14.296C17.3739 14.296 17.1819 14.223 17.0359 14.078C16.7429 13.786 16.7409 13.311 17.0339 13.017L19.001 11.039C19.809 10.241 20.25 9.171 20.25 8.023C20.25 6.877 19.8069 5.80298 19.0029 4.99798C17.3389 3.33298 14.6289 3.33298 12.9629 4.99798L10.9961 6.975C10.7041 7.269 10.2291 7.26999 9.93506 6.97799C9.64206 6.68599 9.63988 6.21099 9.93188 5.91699L11.9009 3.93899C14.1539 1.68699 17.814 1.68898 20.063 3.93798C21.151 5.02498 21.75 6.476 21.75 8.023C21.75 9.575 21.15 11.023 20.061 12.101L18.0979 14.075C17.9499 14.223 17.7579 14.296 17.5649 14.296ZM12.0991 20.063L14.0779 18.095C14.3709 17.803 14.3731 17.328 14.0801 17.034C13.7881 16.74 13.313 16.74 13.019 17.031L11.04 19.001C9.37604 20.666 6.666 20.666 5 19.001C3.335 17.336 3.33502 14.627 4.99902 12.963L6.97803 10.995C7.27103 10.703 7.27298 10.228 6.97998 9.93398C6.68798 9.63998 6.21295 9.63999 5.91895 9.93099L3.93994 11.901C1.68994 14.151 1.68994 17.811 3.93994 20.061C5.06594 21.186 6.544 21.748 8.021 21.748C9.498 21.748 10.9751 21.187 12.0991 20.063ZM9.53003 15.53L15.5559 9.505C15.8489 9.212 15.8489 8.73699 15.5559 8.44399C15.2639 8.15199 14.7891 8.14999 14.4951 8.44399L8.46899 14.469C8.17599 14.762 8.17599 15.237 8.46899 15.53C8.61499 15.676 8.80702 15.75 8.99902 15.75C9.19102 15.75 9.38403 15.677 9.53003 15.53Z" fill="currentColor"/>
</svg>

<svg xmlns="http://www.w3.org/2000/svg" width="24" height="24" fill="none"><path fill="currentColor" d="M17.565 14.296a.75.75 0 0 1-.531-1.279L19 11.039a4.2 4.2 0 0 0 1.249-3.016 4.25 4.25 0 0 0-1.247-3.025 4.276 4.276 0 0 0-6.04 0l-1.967 1.977a.75.75 0 0 1-1.064-1.058L11.9 3.939a5.778 5.778 0 0 1 8.162-.001 5.734 5.734 0 0 1 1.687 4.085c0 1.552-.6 3-1.689 4.078l-1.963 1.974a.75.75 0 0 1-.533.221Zm-5.466 5.767 1.979-1.968a.75.75 0 0 0-1.059-1.064l-1.979 1.97a4.276 4.276 0 0 1-6.04 0 4.275 4.275 0 0 1-.001-6.038l1.979-1.968a.75.75 0 0 0-1.059-1.064l-1.98 1.97a5.776 5.776 0 0 0 0 8.16 5.756 5.756 0 0 0 4.082 1.687 5.748 5.748 0 0 0 4.078-1.685ZM9.53 15.53l6.026-6.025a.75.75 0 0 0-1.06-1.061l-6.027 6.025A.75.75 0 1 0 9.53 15.53Z"/></svg>
